public/formular-icons/operators/ExpPower.svg

<svg style="vertical-align:-.025ex" xmlns="http://www.w3.org/2000/svg" width="2.202ex" height="2.159ex" viewBox="0 -943.3 973.3 954.3" xmlns:xlink="http://www.w3.org/1999/xlink"><defs><path id="a" d="M39 168q0 57 19 104t49 78 67 52 70 31 63 9h3q45 0 78-22t33-65q0-90-111-118-49-13-134-14-37 0-38-2 0-2-6-35t-7-58q0-47 21-74t63-28 93 19 92 66q9 10 12 10 4 0 13-9t10-14-9-16-30-27-46-31-63-25-76-10q-79 0-122 53T39 168Zm334 185q-6 52-68 52-33 0-61-14t-45-34-29-41-16-36-5-19q0-1 20-1 113 0 158 24t46 69Z"/></defs><g stroke="currentColor" fill="currentColor" stroke-width="0"><g><use data-c="1D452" xlink:href="#a" transform="scale(1 -1)"/><g><text data-variant="normal" transform="matrix(.707 0 0 .707 499 -413)" font-size="884" font-family="serif">⬚</text></g></g></g></svg>

<svg style="vertical-align: -0.025ex" xmlns="http://www.w3.org/2000/svg" width="2.202ex" height="2.159ex" role="img" focusable="false" viewBox="0 -943.3 973.3 954.3" xmlns:xlink="http://www.w3.org/1999/xlink"><defs><path id="MJX-15-TEX-I-1D452" d="M39 168Q39 225 58 272T107 350T174 402T244 433T307 442H310Q355 442 388 420T421 355Q421 265 310 237Q261 224 176 223Q139 223 138 221Q138 219 132 186T125 128Q125 81 146 54T209 26T302 45T394 111Q403 121 406 121Q410 121 419 112T429 98T420 82T390 55T344 24T281 -1T205 -11Q126 -11 83 42T39 168ZM373 353Q367 405 305 405Q272 405 244 391T199 357T170 316T154 280T149 261Q149 260 169 260Q282 260 327 284T373 353Z"></path></defs><g stroke="currentColor" fill="currentColor" stroke-width="0" transform="scale(1,-1)"><g data-mml-node="math"><g data-mml-node="msup"><g data-mml-node="mi"><use data-c="1D452" xlink:href="#MJX-15-TEX-I-1D452"></use></g><g data-mml-node="TeXAtom" transform="translate(499,413) scale(0.707)" data-mjx-texclass="ORD"><g data-mml-node="mo"><text data-variant="normal" transform="scale(1,-1)" font-size="884px" font-family="serif">⬚</text></g></g></g></g></g></svg>
